X: 74
T: POLKA: Bill Sullivan's (Amaj)
T: Mickey Chewing Bubblegum
C: C: Terry Teahan; S: Jackie Daly & Séamus Creagh
C: Set Leaders: Vova, Anton, Tania
Z: Anton Zille ed., Oleg Naumov arr.; JHowley at The Session
N: https://thesession.org/members/26966/sets/96723
R: Polka
M: 2/4
L: 1/8
Q: 1/4=140
K: Amaj
|:"A"a2 a>f|"A"ec a2|"A"ce a>f|"E"ec BA|
"A"a2 a>f|"A"ec a2|"D"ce "E"B>c|1 "A"BA ce:|2 "A"BA A>B||
|:"A"ce ec|"D"df fd|"A"ce eA/B/|"E"cB BA/B/|
"A"ce ec|"D"df f>e|"A"ce "E"B>c|1 "A"BA A>B:|2 "A"BA ce||

